src/assets/images/map/markers/found/icon_132.svg

<?xml version="1.0" encoding="UTF-8" standalone="no"?>
<svg
   xmlns:dc="http://purl.org/dc/elements/1.1/"
   xmlns:cc="http://creativecommons.org/ns#"
   xmlns:rdf="http://www.w3.org/1999/02/22-rdf-syntax-ns#"
   xmlns:svg="http://www.w3.org/2000/svg"
   xmlns="http://www.w3.org/2000/svg"
   xmlns:sodipodi="http://sodipodi.sourceforge.net/DTD/sodipodi-0.dtd"
   xmlns:inkscape="http://www.inkscape.org/namespaces/inkscape"
   width="128pt"
   height="128pt"
   viewBox="0 0 128 128"
   version="1.1"
   id="svg5"
   sodipodi:docname="icon_132.svg"
   inkscape:version="0.92.1 r15371">
  <metadata
     id="metadata11">
    <rdf:RDF>
      <cc:Work
         rdf:about="">
        <dc:format>image/svg+xml</dc:format>
        <dc:type
           rdf:resource="http://purl.org/dc/dcmitype/StillImage" />
      </cc:Work>
    </rdf:RDF>
  </metadata>
  <defs
     id="defs9" />
  <sodipodi:namedview
     pagecolor="#ffffff"
     bordercolor="#666666"
     borderopacity="1"
     objecttolerance="10"
     gridtolerance="10"
     guidetolerance="10"
     inkscape:pageopacity="0"
     inkscape:pageshadow="2"
     inkscape:window-width="1366"
     inkscape:window-height="685"
     id="namedview7"
     showgrid="false"
     inkscape:zoom="1.3828125"
     inkscape:cx="-61.468927"
     inkscape:cy="85.333333"
     inkscape:window-x="0"
     inkscape:window-y="0"
     inkscape:window-maximized="1"
     inkscape:current-layer="surface1" />
  <g
     id="surface1">
    <path
       style="fill:#00ff00;fill-opacity:1;fill-rule:nonzero;stroke:none"
       d="m 8.402344,64 c 0,8.402344 1.941406,16.699219 5.820312,24.890625 V 39.109375 C 10.34375,47.300781 8.402344,55.597656 8.402344,64 M 25.535156,46.222656 22.949219,45.574219 h -1.617188 l -1.9375,-0.644531 1.292969,-0.324219 H 18.746094 V 96 c 7.972656,11.85156 19.070312,19.28516 33.292968,22.30469 h 5.820313 v -0.64844 l -0.324219,-1.9375 0.648438,-0.64844 v -2.26172 l -2.585938,-4.84765 -0.324218,-1.94141 -0.324219,-0.96875 -0.324219,-7.433592 0.972656,-2.261719 v -4.203125 l 0.320313,-2.261719 v -1.292969 l -0.96875,-3.878906 -0.96875,1.9375 -1.292969,1.617188 v 0.324218 l -0.648438,0.320313 -0.320312,0.648437 -2.910156,3.230469 -1.617188,2.910156 -0.644531,1.617188 -3.558594,5.816411 -1.613281,2.26171 -0.972656,2.58594 -0.644532,2.26563 -0.324218,2.58593 -0.324219,0.32032 v 0.32422 l -2.90625,-0.96875 -3.234375,-2.26172 v -0.32422 h 0.324219 l 1.617187,-0.32422 1.292969,-0.64453 0.96875,-1.94141 2.910156,-10.98828 4.199219,-6.140625 1.941406,-1.617187 V 86.625 l 1.9375,-1.9375 0.648438,-1.941406 v -0.644532 l 1.292968,-3.878906 0.644532,-1.941406 0.324218,-1.9375 1.292969,-1.941406 2.261719,-3.878906 1.292969,-5.167969 V 60.769531 L 56.890625,58.503906 55.597656,54.625 54.949219,53.011719 V 51.394531 L 53.65625,49.777344 V 48.484375 C 53.226562,47.621094 52.6875,47.191406 52.039062,47.191406 l -0.96875,0.324219 h -3.230468 l -1.941406,-0.648437 -1.617188,0.324218 -3.230469,-0.324218 -1.292969,0.324218 h -1.292968 l -2.261719,0.324219 -2.910156,-0.648437 -1.617188,-0.320313 -0.96875,-0.324219 h -1.9375 l -1.292969,-0.648437 c -0.21875,0.433593 -0.863281,0.648437 -1.941406,0.648437 M 26.183594,33.617188 25.210938,32.644531 H 24.566406 L 23.917969,32.324219 H 23.273438 L 22.625,32 21.011719,30.707031 h 1.292969 -0.648438 c -0.644531,0 -1.183594,-0.214843 -1.617188,-0.644531 l -1.292968,2.261719 V 42.34375 L 21.011719,42.019531 22.625,41.695312 H 21.65625 L 20.363281,41.375 19.71875,40.726562 22.625,40.402344 l 0.972656,0.648437 h 1.292969 l 2.90625,1.292969 h 1.617187 l 0.96875,0.324219 2.261719,-0.324219 h 4.203125 l 1.941406,-0.324219 1.613282,0.648438 3.878906,-0.324219 h 2.265625 l -1.941406,-0.324219 -5.171875,-1.9375 -0.96875,-0.648437 -1.292969,-0.324219 -5.816406,-3.230469 -3.234375,-1.941406 -1.9375,-0.320312 m 0.320312,-5.496094 0.648438,0.324218 2.261718,2.261719 0.96875,0.648438 2.585938,0.96875 5.171875,0.96875 0.324219,0.324219 2.910156,1.613281 2.261719,1.292969 h 0.96875 l 1.292969,0.648437 4.203124,1.292969 4.847657,0.644531 2.585937,0.972656 1.941406,-0.324219 1.292969,-1.941406 v -0.644531 l -0.648437,-1.941406 h -0.324219 l -0.96875,-1.613281 V 32 h 0.648437 c -0.21875,-2.371094 0.535157,-3.988281 2.261719,-4.847656 H 25.210938 l 1.292968,0.96875 M 113.77734,88.566406 C 117.65625,80.808594 119.59766,72.621094 119.59766,64 c 0,-8.621094 -1.94141,-16.808594 -5.82032,-24.566406 V 88.566406 M 101.49609,22.949219 C 90.9375,13.253906 78.4375,8.402344 64,8.402344 c -14.4375,0 -26.9375,4.851562 -37.496094,14.546875 H 101.49609 M 74.988281,47.191406 73.375,47.839844 l -1.292969,7.109375 -0.648437,1.292969 -0.96875,6.464843 -0.96875,-0.324219 0.320312,2.910157 0.648438,1.292969 v 2.585937 h 0.324218 v -0.324219 l 0.320313,0.324219 1.292969,1.9375 2.265625,5.820313 2.585937,7.757812 -0.648437,1.292969 0.648437,1.617187 1.613282,1.613282 0.972656,-0.320313 1.613281,4.847656 3.234375,7.433599 2.585938,5.17187 H 86.625 v 0.64453 l 0.648438,-0.64453 2.261718,1.9375 h 3.554688 l 3.554687,-1.9375 0.648438,0.96875 -0.96875,1.29297 -3.878907,2.26172 h -2.585937 l -1.941406,0.97265 -1.292969,1.9375 -0.96875,-0.64453 0.648438,-2.91015 -1.292969,-2.26172 0.320312,-0.32422 -0.644531,-0.64844 h -0.324219 l -3.878906,-5.17187 -1.617187,-1.61328 c -1.9375,-2.156255 -2.800782,-3.773442 -2.585938,-4.847661 l 0.648438,-0.972657 -0.96875,-1.9375 -1.941407,-1.617187 h -0.324219 v 0.648437 H 73.375 l -2.910156,-6.464843 -0.324219,4.523437 -0.324219,0.324219 -0.644531,-0.324219 v 1.292969 l 0.96875,1.941406 -0.644531,2.261719 0.644531,-0.324219 -0.324219,0.648438 -1.613281,11.632811 v 4.20313 h -0.324219 l 0.324219,0.64843 1.292969,1.9375 2.90625,0.96875 3.558594,0.64844 v 1.29297 l -2.585938,0.96875 -2.910156,0.32422 -2.261719,-0.96875 -1.941406,0.96875 h -0.96875 v -0.32422 l 0.324219,-1.9375 v -3.23437 l 0.320312,-0.32422 -1.292969,-4.19922 v -0.32422 c -1.289062,-5.38672 -1.289062,-8.726564 0,-10.019532 l 0.972657,-0.324219 v -2.585938 l -0.648438,-1.9375 -0.324219,-1.292969 H 64.324219 V 91.152344 L 64,84.363281 l -0.644531,-4.203125 -0.648438,2.265625 -0.96875,3.554688 0.324219,2.585937 -0.324219,1.9375 v 0.972656 l -0.648437,0.96875 v 0.96875 l -0.320313,0.96875 -0.324219,0.648438 -0.648437,2.585938 0.648437,1.9375 0.324219,3.878902 -0.324219,1.61719 0.324219,0.96875 v 0.32422 l 0.644531,5.49609 0.96875,1.61329 v 1.29296 l 0.648438,0.97266 1.613281,1.29297 0.324219,0.96875 v 0.32422 h 10.992188 c 14.222656,-3.01953 25.535152,-10.5625 33.937502,-22.628909 l -0.32422,-50.421875 -4.52344,-0.324218 v 0.324218 l 3.23047,0.320313 -0.32031,0.648437 h -6.46485 v 0.644532 h -1.29296 v -0.96875 l -5.820318,0.324218 -0.644531,0.644532 -2.261719,0.324218 -2.585937,-0.644531 v -0.648437 h -0.324219 l -1.617187,0.96875 -0.644531,-0.320313 H 85.980469 L 74.988281,47.191406 M 86.625,39.757812 h -0.320312 l -8.730469,3.230469 8.730469,0.648438 0.644531,-0.324219 0.96875,0.324219 0.648437,0.644531 0.324219,-0.320312 V 43.3125 l 3.878906,-0.644531 6.785157,0.320312 h 0.324218 V 43.3125 h 0.324224 V 41.695312 L 101.17188,41.375 v 0.644531 l 1.61718,-0.644531 2.58594,-0.648438 2.90625,1.292969 v 0.648438 l 1.29297,0.320312 V 32.324219 l -1.61328,-2.261719 -3.5586,1.292969 2.91016,-0.648438 v 0.96875 l -5.49609,1.617188 0.32422,0.324219 -0.96875,0.644531 -0.64844,-0.96875 -6.140628,3.230469 -0.644531,0.648437 -1.941406,1.292969 -1.9375,0.644531 h -0.96875 v -0.96875 L 88.566406,38.464844 86.625,39.757812 m -0.644531,-3.234374 h 1.9375 l -0.320313,-0.644532 v -0.324218 l 0.320313,-0.644532 4.527343,-1.617187 c 3.230469,-0.863281 5.171876,-1.722657 5.816407,-2.585938 h 0.324219 l 0.324218,0.648438 h 0.320313 l -0.96875,-1.292969 0.324219,-0.648438 0.96875,0.324219 1.292972,-1.292969 2.26172,-1.292968 H 66.261719 l 1.292969,0.644531 0.96875,4.527344 h 0.648437 v 1.292969 l -0.648437,0.96875 -0.320313,0.644531 -0.648437,1.941406 -0.644532,0.96875 1.613282,2.585937 c 1.292968,-1.722656 3.019531,-2.585937 5.171874,-2.585937 l 2.585938,0.648437 9.050781,-1.617187 0.324219,-0.324219 v -0.324218 h 0.324219 m 27.152341,-13.574219 0.64453,0.96875 C 123.25781,35.554688 128,48.914062 128,64 128,81.671875 121.75,96.753906 109.25391,109.25391 96.753906,121.75 81.671875,128 64,128 46.328125,128 31.246094,121.75 18.746094,109.25391 6.25,96.753906 0,81.671875 0,64 0,48.914062 4.742188,35.449219 14.222656,23.597656 l 0.644532,-0.648437 C 20.902344,15.839844 28.121094,10.234375 36.523438,6.140625 45.144531,2.046875 54.304688,0 64,0 c 9.695312,0 18.855469,2.046875 27.476562,6.140625 8.402344,4.09375 15.621098,9.699219 21.656248,16.808594"
       id="path2"
       inkscape:connector-curvature="0" />
  </g>
</svg>

<?xml version="1.0" encoding="UTF-8"?>
<svg xmlns="http://www.w3.org/2000/svg" xmlns:xlink="http://www.w3.org/1999/xlink" width="128pt" height="128pt" viewBox="0 0 128 128" version="1.1">
<g id="surface1">
<path style=" stroke:none;fill-rule:nonzero;fill:rgb(100%,100%,100%);fill-opacity:1;" d="M 8.402344 64 C 8.402344 72.402344 10.34375 80.699219 14.222656 88.890625 L 14.222656 39.109375 C 10.34375 47.300781 8.402344 55.597656 8.402344 64 M 25.535156 46.222656 L 22.949219 45.574219 L 21.332031 45.574219 L 19.394531 44.929688 L 20.6875 44.605469 L 18.746094 44.605469 L 18.746094 96 C 26.71875 107.851562 37.816406 115.285156 52.039062 118.304688 L 57.859375 118.304688 L 57.859375 117.65625 L 57.535156 115.71875 L 58.183594 115.070312 L 58.183594 112.808594 L 55.597656 107.960938 L 55.273438 106.019531 L 54.949219 105.050781 L 54.625 97.617188 L 55.597656 95.355469 L 55.597656 91.152344 L 55.917969 88.890625 L 55.917969 87.597656 L 54.949219 83.71875 L 53.980469 85.65625 L 52.6875 87.273438 L 52.6875 87.597656 L 52.039062 87.917969 L 51.71875 88.566406 L 48.808594 91.796875 L 47.191406 94.707031 L 46.546875 96.324219 L 42.988281 102.140625 L 41.375 104.402344 L 40.402344 106.988281 L 39.757812 109.253906 L 39.433594 111.839844 L 39.109375 112.160156 L 39.109375 112.484375 L 36.203125 111.515625 L 32.96875 109.253906 L 32.96875 108.929688 L 33.292969 108.929688 L 34.910156 108.605469 L 36.203125 107.960938 L 37.171875 106.019531 L 40.082031 95.03125 L 44.28125 88.890625 L 46.222656 87.273438 L 46.222656 86.625 L 48.160156 84.6875 L 48.808594 82.746094 L 48.808594 82.101562 L 50.101562 78.222656 L 50.746094 76.28125 L 51.070312 74.34375 L 52.363281 72.402344 L 54.625 68.523438 L 55.917969 63.355469 L 55.917969 60.769531 L 56.890625 58.503906 L 55.597656 54.625 L 54.949219 53.011719 L 54.949219 51.394531 L 53.65625 49.777344 L 53.65625 48.484375 C 53.226562 47.621094 52.6875 47.191406 52.039062 47.191406 L 51.070312 47.515625 L 47.839844 47.515625 L 45.898438 46.867188 L 44.28125 47.191406 L 41.050781 46.867188 L 39.757812 47.191406 L 38.464844 47.191406 L 36.203125 47.515625 L 33.292969 46.867188 L 31.675781 46.546875 L 30.707031 46.222656 L 28.769531 46.222656 L 27.476562 45.574219 C 27.257812 46.007812 26.613281 46.222656 25.535156 46.222656 M 26.183594 33.617188 L 25.210938 32.644531 L 24.566406 32.644531 L 23.917969 32.324219 L 23.273438 32.324219 L 22.625 32 L 21.011719 30.707031 L 22.304688 30.707031 L 21.65625 30.707031 C 21.011719 30.707031 20.472656 30.492188 20.039062 30.0625 L 18.746094 32.324219 L 18.746094 42.34375 L 21.011719 42.019531 L 22.625 41.695312 L 21.65625 41.695312 L 20.363281 41.375 L 19.71875 40.726562 L 22.625 40.402344 L 23.597656 41.050781 L 24.890625 41.050781 L 27.796875 42.34375 L 29.414062 42.34375 L 30.382812 42.667969 L 32.644531 42.34375 L 36.847656 42.34375 L 38.789062 42.019531 L 40.402344 42.667969 L 44.28125 42.34375 L 46.546875 42.34375 L 44.605469 42.019531 L 39.433594 40.082031 L 38.464844 39.433594 L 37.171875 39.109375 L 31.355469 35.878906 L 28.121094 33.9375 L 26.183594 33.617188 M 26.503906 28.121094 L 27.152344 28.445312 L 29.414062 30.707031 L 30.382812 31.355469 L 32.96875 32.324219 L 38.140625 33.292969 L 38.464844 33.617188 L 41.375 35.230469 L 43.636719 36.523438 L 44.605469 36.523438 L 45.898438 37.171875 L 50.101562 38.464844 L 54.949219 39.109375 L 57.535156 40.082031 L 59.476562 39.757812 L 60.769531 37.816406 L 60.769531 37.171875 L 60.121094 35.230469 L 59.796875 35.230469 L 58.828125 33.617188 L 58.828125 32 L 59.476562 32 C 59.257812 29.628906 60.011719 28.011719 61.738281 27.152344 L 25.210938 27.152344 L 26.503906 28.121094 M 113.777344 88.566406 C 117.65625 80.808594 119.597656 72.621094 119.597656 64 C 119.597656 55.378906 117.65625 47.191406 113.777344 39.433594 L 113.777344 88.566406 M 101.496094 22.949219 C 90.9375 13.253906 78.4375 8.402344 64 8.402344 C 49.5625 8.402344 37.0625 13.253906 26.503906 22.949219 L 101.496094 22.949219 M 74.988281 47.191406 L 73.375 47.839844 L 72.082031 54.949219 L 71.433594 56.242188 L 70.464844 62.707031 L 69.496094 62.382812 L 69.816406 65.292969 L 70.464844 66.585938 L 70.464844 69.171875 L 70.789062 69.171875 L 70.789062 68.847656 L 71.109375 69.171875 L 72.402344 71.109375 L 74.667969 76.929688 L 77.253906 84.6875 L 76.605469 85.980469 L 77.253906 87.597656 L 78.867188 89.210938 L 79.839844 88.890625 L 81.453125 93.738281 L 84.6875 101.171875 L 87.273438 106.34375 L 86.625 106.34375 L 86.625 106.988281 L 87.273438 106.34375 L 89.535156 108.28125 L 93.089844 108.28125 L 96.644531 106.34375 L 97.292969 107.3125 L 96.324219 108.605469 L 92.445312 110.867188 L 89.859375 110.867188 L 87.917969 111.839844 L 86.625 113.777344 L 85.65625 113.132812 L 86.304688 110.222656 L 85.011719 107.960938 L 85.332031 107.636719 L 84.6875 106.988281 L 84.363281 106.988281 L 80.484375 101.816406 L 78.867188 100.203125 C 76.929688 98.046875 76.066406 96.429688 76.28125 95.355469 L 76.929688 94.382812 L 75.960938 92.445312 L 74.019531 90.828125 L 73.695312 90.828125 L 73.695312 91.476562 L 73.375 91.476562 L 70.464844 85.011719 L 70.140625 89.535156 L 69.816406 89.859375 L 69.171875 89.535156 L 69.171875 90.828125 L 70.140625 92.769531 L 69.496094 95.03125 L 70.140625 94.707031 L 69.816406 95.355469 L 68.203125 106.988281 L 68.203125 111.191406 L 67.878906 111.191406 L 68.203125 111.839844 L 69.496094 113.777344 L 72.402344 114.746094 L 75.960938 115.394531 L 75.960938 116.6875 L 73.375 117.65625 L 70.464844 117.980469 L 68.203125 117.011719 L 66.261719 117.980469 L 65.292969 117.980469 L 65.292969 117.65625 L 65.617188 115.71875 L 65.617188 112.484375 L 65.9375 112.160156 L 64.644531 107.960938 L 64.644531 107.636719 C 63.355469 102.25 63.355469 98.910156 64.644531 97.617188 L 65.617188 97.292969 L 65.617188 94.707031 L 64.96875 92.769531 L 64.644531 91.476562 L 64.324219 91.476562 L 64.324219 91.152344 L 64 84.363281 L 63.355469 80.160156 L 62.707031 82.425781 L 61.738281 85.980469 L 62.0625 88.566406 L 61.738281 90.503906 L 61.738281 91.476562 L 61.089844 92.445312 L 61.089844 93.414062 L 60.769531 94.382812 L 60.445312 95.03125 L 59.796875 97.617188 L 60.445312 99.554688 L 60.769531 103.433594 L 60.445312 105.050781 L 60.769531 106.019531 L 60.769531 106.34375 L 61.414062 111.839844 L 62.382812 113.453125 L 62.382812 114.746094 L 63.03125 115.71875 L 64.644531 117.011719 L 64.96875 117.980469 L 64.96875 118.304688 L 75.960938 118.304688 C 90.183594 115.285156 101.496094 107.742188 109.898438 95.675781 L 109.574219 45.253906 L 105.050781 44.929688 L 105.050781 45.253906 L 108.28125 45.574219 L 107.960938 46.222656 L 101.496094 46.222656 L 101.496094 46.867188 L 100.203125 46.867188 L 100.203125 45.898438 L 94.382812 46.222656 L 93.738281 46.867188 L 91.476562 47.191406 L 88.890625 46.546875 L 88.890625 45.898438 L 88.566406 45.898438 L 86.949219 46.867188 L 86.304688 46.546875 L 85.980469 46.546875 L 74.988281 47.191406 M 86.625 39.757812 L 86.304688 39.757812 L 77.574219 42.988281 L 86.304688 43.636719 L 86.949219 43.3125 L 87.917969 43.636719 L 88.566406 44.28125 L 88.890625 43.960938 L 88.890625 43.3125 L 92.769531 42.667969 L 99.554688 42.988281 L 99.878906 42.988281 L 99.878906 43.3125 L 100.203125 43.3125 L 100.203125 41.695312 L 101.171875 41.375 L 101.171875 42.019531 L 102.789062 41.375 L 105.375 40.726562 L 108.28125 42.019531 L 108.28125 42.667969 L 109.574219 42.988281 L 109.574219 32.324219 L 107.960938 30.0625 L 104.402344 31.355469 L 107.3125 30.707031 L 107.3125 31.675781 L 101.816406 33.292969 L 102.140625 33.617188 L 101.171875 34.261719 L 100.523438 33.292969 L 94.382812 36.523438 L 93.738281 37.171875 L 91.796875 38.464844 L 89.859375 39.109375 L 88.890625 39.109375 L 88.890625 38.140625 L 88.566406 38.464844 L 86.625 39.757812 M 85.980469 36.523438 L 87.917969 36.523438 L 87.597656 35.878906 L 87.597656 35.554688 L 87.917969 34.910156 L 92.445312 33.292969 C 95.675781 32.429688 97.617188 31.570312 98.261719 30.707031 L 98.585938 30.707031 L 98.910156 31.355469 L 99.230469 31.355469 L 98.261719 30.0625 L 98.585938 29.414062 L 99.554688 29.738281 L 100.847656 28.445312 L 103.109375 27.152344 L 66.261719 27.152344 L 67.554688 27.796875 L 68.523438 32.324219 L 69.171875 32.324219 L 69.171875 33.617188 L 68.523438 34.585938 L 68.203125 35.230469 L 67.554688 37.171875 L 66.910156 38.140625 L 68.523438 40.726562 C 69.816406 39.003906 71.542969 38.140625 73.695312 38.140625 L 76.28125 38.789062 L 85.332031 37.171875 L 85.65625 36.847656 L 85.65625 36.523438 L 85.980469 36.523438 M 113.132812 22.949219 L 113.777344 23.917969 C 123.257812 35.554688 128 48.914062 128 64 C 128 81.671875 121.75 96.753906 109.253906 109.253906 C 96.753906 121.75 81.671875 128 64 128 C 46.328125 128 31.246094 121.75 18.746094 109.253906 C 6.25 96.753906 0 81.671875 0 64 C 0 48.914062 4.742188 35.449219 14.222656 23.597656 L 14.867188 22.949219 C 20.902344 15.839844 28.121094 10.234375 36.523438 6.140625 C 45.144531 2.046875 54.304688 0 64 0 C 73.695312 0 82.855469 2.046875 91.476562 6.140625 C 99.878906 10.234375 107.097656 15.839844 113.132812 22.949219 "/>
</g>
</svg>
